resources/svg/currency-btc-light.svg

<svg xmlns="http://www.w3.org/2000/svg" viewBox="0 0 256 256" fill="currentColor"><path d="M166.69141,116.40527A41.98193,41.98193,0,0,0,142,42.05078V24a6,6,0,0,0-12,0V41.999l-20-.00146V24a6,6,0,0,0-12,0V41.99658l-18.00488-.00146h-16.001a6,6,0,0,0,0,12h10v140h-10a6,6,0,0,0,0,12h16L98,205.99609V224a6,6,0,0,0,12,0V205.99707l20,.00147V224a6,6,0,0,0,12,0V205.99951L152,206a46.00226,46.00226,0,0,0,14.69141-89.59473ZM170,84a30.03406,30.03406,0,0,1-30,30H85.99414V53.99512l17.94141.00146C103.957,53.99707,103.978,54,104,54c.02148,0,.04248-.00293.06445-.00342l31.92823.00293L136,54l.00732-.00049L140,54A30.03406,30.03406,0,0,1,170,84ZM152,194l-66.00586-.00488V126H152a34,34,0,0,1,0,68Z"/></svg>

<svg xmlns="http://www.w3.org/2000/svg" viewBox="0 0 256 256" fill="currentColor"><path d="M166.7,116.4A41.9,41.9,0,0,0,142,42.1V24a6,6,0,0,0-12,0V42H110V24a6,6,0,0,0-12,0V42H64a6,6,0,0,0,0,12H74V194H64a6,6,0,0,0,0,12H98v18a6,6,0,0,0,12,0V206h20v18a6,6,0,0,0,12,0V206h10a46,46,0,0,0,14.7-89.6ZM170,84a30.1,30.1,0,0,1-30,30H86V54h54A30.1,30.1,0,0,1,170,84ZM152,194H86V126h66a34,34,0,0,1,0,68Z"/></svg>
